android/app/src/main/assets/swap/near.svg

<svg width="88" height="88" viewBox="0 0 88 88" fill="none" xmlns="http://www.w3.org/2000/svg">
<rect width="88" height="88" rx="44" fill="#6CE89E"/>
<path d="M59.2739 21.2468L48.6975 36.9601C47.9662 38.0301 49.3726 39.3255 50.3852 38.4244L60.7929 29.3569C61.0742 29.1316 61.468 29.3005 61.468 29.6948V58.0237C61.468 58.418 60.9616 58.5869 60.7366 58.3053L29.2324 20.5709C28.2198 19.3319 26.7571 18.6561 25.1256 18.6561H24.0005C21.0751 18.6561 18.656 21.0778 18.656 24.0628V63.9373C18.656 66.9223 21.0751 69.3441 24.0567 69.3441C25.9132 69.3441 27.6572 68.3866 28.6698 66.7533L39.2463 51.0401C39.9776 49.97 38.5712 48.6746 37.5585 49.5757L27.1509 58.5869C26.8696 58.8122 26.4758 58.6433 26.4758 58.249V29.9764C26.4758 29.5821 26.9821 29.4132 27.2071 29.6948L58.7113 67.4292C59.724 68.6682 61.2429 69.3441 62.8181 69.3441H63.9433C66.9249 69.3441 69.344 66.9223 69.344 63.9373V24.0628C69.344 21.0778 66.9249 18.6561 63.9433 18.6561C62.0305 18.6561 60.2866 19.6135 59.2739 21.2468Z" fill="black"/>
</svg>

<svg xmlns="http://www.w3.org/2000/svg" width="88" height="88" fill="none" viewBox="0 0 88 88"><rect width="88" height="88" fill="#ef5a28" rx="44"/><path fill="#fff" d="M59.274 21.247 48.697 36.96c-.73 1.07.676 2.365 1.688 1.464l10.408-9.067c.281-.225.675-.056.675.338v28.329c0 .394-.506.563-.731.281L29.232 20.571c-1.012-1.24-2.475-1.915-4.106-1.915H24c-2.925 0-5.344 2.422-5.344 5.407v39.874a5.405 5.405 0 0 0 5.4 5.407c1.857 0 3.601-.957 4.614-2.59L39.246 51.04c.732-1.07-.675-2.365-1.687-1.464l-10.408 9.01c-.281.226-.675.057-.675-.337V29.976c0-.394.506-.563.731-.281l31.504 37.734c1.013 1.24 2.532 1.915 4.107 1.915h1.125c2.982 0 5.401-2.422 5.401-5.407V24.063a5.405 5.405 0 0 0-5.4-5.407 5.45 5.45 0 0 0-4.67 2.59"/></svg>
